content/tracks/aws-certified-developer-associate/lambda/img/logo.svg

<svg height="80" viewBox="0 0 80 80" width="80" xmlns="http://www.w3.org/2000/svg" xmlns:xlink="http://www.w3.org/1999/xlink"><linearGradient id="a" x1="0%" x2="100%" y1="100%" y2="0%"><stop offset="0" stop-color="#c8511b"/><stop offset="1" stop-color="#f90"/></linearGradient><g fill="none" fill-rule="evenodd"><path d="m0 0h80v80h-80z" fill="url(#a)"/><path d="m28.0075352 66h-12.4168078l13.7328611-28.704 6.2224364 12.81zm2.2121322-31.447c-.1683906-.345-.5192045-.564-.9020929-.564h-.0030069c-.3858953.001-.7367093.222-.902093.569l-15.3145306 32.011c-.1483441.31-.1272953.674.0571326.965.1824232.29.5031673.466.846965.466h14.6399656c.3878999 0 .7397162-.223.9061022-.572l8.0155966-16.9c.1293-.274.1282977-.591-.0050116-.863zm34.7756817 31.447h-12.3366217l-19.7919184-41.43c-.1653837-.348-.5182023-.57-.9050999-.57h-8.0717269l.0090209-10h15.820705l19.7007068 41.429c.1653837.348.5182023.571.9050999.571h4.6698343zm1.0023254-12h-5.0376877l-19.7007068-41.429c-.1653837-.348-.5182023-.571-.9061022-.571h-17.4554978c-.5522813 0-1.0013231.447-1.0023255.999l-.0110255 12c0 .266.1042418.52.2936813.708.1874349.188.4420255.293.7086441.293h8.4425873l19.7929208 41.43c.166386.348.5171999.57.9040975.57h13.9714145c.554286 0 1.0023255-.448 1.0023255-1v-12c0-.552-.4480395-1-1.0023255-1z" fill="#fff"/></g></svg>

<?xml version="1.0" encoding="UTF-8"?>
<svg width="80px" height="80px" viewBox="0 0 80 80" version="1.1" xmlns="http://www.w3.org/2000/svg" xmlns:xlink="http://www.w3.org/1999/xlink">
    <!-- Generator: Sketch 64 (93537) - https://sketch.com -->
    <title>Icon-Architecture/64/Arch_AWS-Lambda_64</title>
    <desc>Created with Sketch.</desc>
    <defs>
        <linearGradient x1="0%" y1="100%" x2="100%" y2="0%" id="linearGradient-1">
            <stop stop-color="#C8511B" offset="0%"></stop>
            <stop stop-color="#FF9900" offset="100%"></stop>
        </linearGradient>
    </defs>
    <g id="Icon-Architecture/64/Arch_AWS-Lambda_64" stroke="none" stroke-width="1" fill="none" fill-rule="evenodd">
        <g id="Icon-Architecture-BG/64/Compute" fill="url(#linearGradient-1)">
            <rect id="Rectangle" x="0" y="0" width="80" height="80"></rect>
        </g>
        <path d="M28.0075352,66 L15.5907274,66 L29.3235885,37.296 L35.5460249,50.106 L28.0075352,66 Z M30.2196674,34.553 C30.0512768,34.208 29.7004629,33.989 29.3175745,33.989 L29.3145676,33.989 C28.9286723,33.99 28.5778583,34.211 28.4124746,34.558 L13.097944,66.569 C12.9495999,66.879 12.9706487,67.243 13.1550766,67.534 C13.3374998,67.824 13.6582439,68 14.0020416,68 L28.6420072,68 C29.0299071,68 29.3817234,67.777 29.5481094,67.428 L37.563706,50.528 C37.693006,50.254 37.6920037,49.937 37.5586944,49.665 L30.2196674,34.553 Z M64.9953491,66 L52.6587274,66 L32.866809,24.57 C32.7014253,24.222 32.3486067,24 31.9617091,24 L23.8899822,24 L23.8990031,14 L39.7197081,14 L59.4204149,55.429 C59.5857986,55.777 59.9386172,56 60.3255148,56 L64.9953491,56 L64.9953491,66 Z M65.9976745,54 L60.9599868,54 L41.25928,12.571 C41.0938963,12.223 40.7410777,12 40.3531778,12 L22.89768,12 C22.3453987,12 21.8963569,12.447 21.8953545,12.999 L21.884329,24.999 C21.884329,25.265 21.9885708,25.519 22.1780103,25.707 C22.3654452,25.895 22.6200358,26 22.8866544,26 L31.3292417,26 L51.1221625,67.43 C51.2885485,67.778 51.6393624,68 52.02626,68 L65.9976745,68 C66.5519605,68 67,67.552 67,67 L67,55 C67,54.448 66.5519605,54 65.9976745,54 L65.9976745,54 Z" id="AWS-Lambda_Icon_64_Squid" fill="#FFFFFF"></path>
    </g>
</svg>
